assets/imgs/icon_puzzle_mail.svg

<svg width="60" height="40" viewBox="0 0 60 40" fill="none" xmlns="http://www.w3.org/2000/svg">
<g clip-path="url(#clip0_334_2)">
<rect x="4.75" y="0.75" width="44.7394" height="31.7924" rx="6.25" fill="white" stroke="#4B4B4B" stroke-width="1.5"/>
<path d="M6.56885 3.42529C11.4619 8.28529 23.0917 21.4073 26.1411 21.4073C29.1905 21.4073 43.2668 8.28529 47.6706 3.42529" stroke="#4B4B4B" stroke-width="1.5"/>
<path d="M6 29.5L19.7213 15.7217" stroke="#4B4B4B" stroke-width="1.5"/>
<path d="M47.6705 29.1138L33.1137 16.2695" stroke="#4B4B4B" stroke-width="1.5"/>
<path d="M52.7829 23.7L52.1338 21.2776L51.1963 17.7785L46.6369 19.0002C45.2959 19.3595 45.1719 19.9697 45.3162 20.508C45.4604 21.0463 46.8735 20.9562 46.9141 23.2532C46.9547 25.5502 43.6642 26.1434 42.6229 24.403C41.5817 22.6626 42.3863 22.447 42.366 21.2985C42.3497 20.3797 41.6305 20.3416 41.2729 20.4375L36.1771 21.8029L37.6917 27.4552C37.8359 27.9936 37.7593 28.9949 36.2988 28.6939C34.4733 28.3176 33.5447 29.1434 33.3486 29.4844C33.1526 29.8254 32.5643 30.8485 32.7807 31.656C32.997 32.4635 33.4095 32.9299 34.3583 33.2527C35.3072 33.5754 36.7203 33.4852 37.3085 32.4622C37.8968 31.4391 38.8456 31.7618 38.9177 32.031L39.2062 33.1076L40.6486 38.4908L46.0126 37.0535C46.4115 36.7543 47.0052 36.0375 46.1884 35.564C45.3716 35.0905 44.9751 34.2544 44.879 33.8955C44.6866 33.1777 44.7847 31.6128 46.7158 31.0954C49.1296 30.4487 49.6344 32.3328 49.7065 32.6019C49.7787 32.8711 49.8508 33.1403 49.4068 34.7017C49.0516 35.9508 50.2144 35.9277 50.8402 35.76L55.6678 34.4665L54.5138 30.1599C54.0466 29.1312 53.4771 27.1489 54.9375 27.45C56.7631 27.8263 57.3716 27.9517 58.3002 27.1259C59.043 26.4653 59.119 25.1756 59.0642 24.6133C58.92 24.075 58.3344 22.9626 57.1462 22.8194C55.661 22.6404 55.0006 23.3943 54.0721 24.2201C53.3292 24.8807 52.9031 24.1486 52.7829 23.7Z" fill="white" stroke="#4B4B4B" stroke-width="1.5"/>
</g>
<defs>
<clipPath id="clip0_334_2">
<rect width="60" height="40" fill="white"/>
</clipPath>
</defs>
</svg>

<svg width="60" height="40" fill="none" xmlns="http://www.w3.org/2000/svg"><g clip-path="url(#a)" stroke="#4B4B4B" stroke-width="1.5"><rect x="4.75" y=".75" width="44.739" height="31.792" rx="6.25" fill="#fff"/><path d="M6.569 3.425c4.893 4.86 16.523 17.982 19.572 17.982 3.05 0 17.126-13.122 21.53-17.982M6 29.5l13.721-13.778M47.67 29.114 33.114 16.269"/><path d="m52.783 23.7-.65-2.422-.937-3.5L46.636 19c-1.34.36-1.464.97-1.32 1.508.144.538 1.557.448 1.598 2.745.04 2.297-3.25 2.89-4.291 1.15-1.041-1.74-.237-1.956-.257-3.104-.016-.92-.736-.957-1.093-.861l-5.096 1.365 1.515 5.652c.144.539.067 1.54-1.393 1.239-1.826-.376-2.754.45-2.95.79-.196.341-.785 1.364-.568 2.172.216.808.629 1.274 1.577 1.597.95.322 2.362.232 2.95-.79.589-1.024 1.538-.701 1.61-.432l.288 1.077 1.443 5.383 5.364-1.438c.398-.299.992-1.015.175-1.489-.816-.474-1.213-1.31-1.309-1.669-.192-.717-.094-2.282 1.837-2.8 2.414-.646 2.918 1.238 2.99 1.507.073.27.145.538-.3 2.1-.354 1.249.808 1.226 1.434 1.058l4.828-1.293-1.154-4.307c-.467-1.029-1.037-3.011.423-2.71 1.826.376 2.435.502 3.363-.324.743-.66.819-1.95.764-2.513-.144-.538-.73-1.65-1.918-1.794-1.485-.179-2.145.575-3.074 1.401-.743.66-1.169-.071-1.29-.52z" fill="#fff"/></g><defs><clipPath id="a"><path fill="#fff" d="M0 0h60v40H0z"/></clipPath></defs></svg>
